src/svg/28/share_outline_28.svg

<svg height="28" viewBox="0 0 28 28" width="28" xmlns="http://www.w3.org/2000/svg"><g fill="none" fill-rule="nonzero" transform=""><path d="m0 0h28v28h-28z"/><path d="m13.9974818 5.42097492c0-.77319865.6268014-1.4 1.4-1.4.3347362 0 .6583938.11993521.9122999.33806361l9.9861668 8.57902507c.5864912.5038493.6534858 1.387745.1496365 1.9742363l-.0719869.0776496c-.0187046.0187046-.0383529.0364653-.0776496.0719869l-9.9861668 8.5790251c-.5864913.5038493-1.470387.4368548-1.9742363-.1496365-.2181284-.2539061-.3380636-.5775638-.3380636-.9122999v-4.066432c-5.08439133.1304864-8.61151087 1.2735834-10.61620686 3.3620416l-.21065861.2279411c-.462168.4879506-1.23162971.523771-1.73745336.0739829-.34218604-.3042785-.49058348-.7713199-.38678566-1.217305 1.68178679-7.226084 6.06235757-11.09845968 12.95110449-11.43521696zm-11.23531531 15.26101038c-.30555005-.271701-.77137936-.2481753-1.04815507.0500927.37060413-.4015056.99291415-.4335468 1.40087976-.0707759l-.19438925.2188437c-.04051323-.0734448-.09365667-.1406469-.15833544-.1981605zm12.23531531-4.1819853c.5522848 0 1 .4477153 1 1v3.7725627l8.4654169-7.2725627-8.4654169-7.27256271v3.77256271c0 .5522847-.4477152 1-1 1-5.6960732 0-9.41372314 2.4679889-11.29899548 7.5433479 2.63303323-1.7093348 6.40650038-2.5433479 11.29899548-2.5433479z" fill="currentColor"/></g></svg>

<?xml version="1.0" encoding="UTF-8"?>
<svg width="28px" height="28px" viewBox="0 0 28 28" version="1.1" xmlns="http://www.w3.org/2000/svg" xmlns:xlink="http://www.w3.org/1999/xlink">
    <!-- Generator: Sketch 63.1 (92452) - https://sketch.com -->
    <title>share_outline_28</title>
    <desc>Created with Sketch.</desc>
    <g id="Page-1" stroke="none" stroke-width="1" fill="none" fill-rule="evenodd">
        <g id="share_outline_28" fill-rule="nonzero">
            <rect x="0" y="0" width="28" height="28"></rect>
            <path d="M13.9974818,5.42097492 C13.9974818,4.64777627 14.6242832,4.02097492 15.3974818,4.02097492 C15.732218,4.02097492 16.0558756,4.14091013 16.3097817,4.35903853 L26.2959485,12.9380636 C26.8824397,13.4419129 26.9494343,14.3258086 26.445585,14.9122999 L26.3735981,14.9899495 C26.3548935,15.0086541 26.3352452,15.0264148 26.2959485,15.0619364 L16.3097817,23.6409615 C15.7232904,24.1448108 14.8393947,24.0778163 14.3355454,23.491325 C14.117417,23.2374189 13.9974818,22.9137612 13.9974818,22.5790251 L13.9974818,18.5125931 C8.91309047,18.6430795 5.38597093,19.7861765 3.38127494,21.8746347 L3.17061633,22.1025758 L3.17061633,22.1025758 C2.70844833,22.5905264 1.93898662,22.6263468 1.43316297,22.1765587 C1.09097693,21.8722802 0.942579493,21.4052388 1.04637731,20.9592537 C2.7281641,13.7331697 7.10873488,9.86079402 13.9974818,9.52403674 L13.9974818,5.42097492 Z M2.76216649,20.6819853 C2.45661644,20.4102843 1.99078713,20.43381 1.71401142,20.732078 C2.08461555,20.3305724 2.70692557,20.2985312 3.11489118,20.6613021 L2.92050193,20.8801458 C2.8799887,20.806701 2.82684526,20.7394989 2.76216649,20.6819853 Z M14.9974818,16.5 C15.5497666,16.5 15.9974818,16.9477153 15.9974818,17.5 L15.9974818,21.2725627 L24.4628987,14 L15.9974818,6.72743729 L15.9974818,10.5 C15.9974818,11.0522847 15.5497666,11.5 14.9974818,11.5 C9.3014086,11.5 5.58375866,13.9679889 3.69848632,19.0433479 C6.33151955,17.3340131 10.1049867,16.5 14.9974818,16.5 Z" id="↳-Icon-Color" fill="currentColor"></path>
        </g>
    </g>
</svg>
